X: 1
T: An Phis Fhliuch
R: slip jig
M: 9/8
L: 1/8
K: Gmaj
|:FGA AFA c2A|BAG F/2G/2AF GED|FGA AFA d2A|d/2e/2fe dcA GED:|
|:d^cd ege d2A|d^cd fdf ~g3|{b}a2a ged c2A|BAG F/2G/2AF GED:|
|:FGA AFd AFd|AFd AFD GED|FGA AFA c2A|BAG F/2G/2AF GED:|
|:~D3 ~D3 c3|c2B c2A GED|~D3 ~D3 d2^c|d/2g/2fe dcA GED:|
|:d^cd ege c2A|d^cd fdf ~g3|~a3 ged c2A|BAG F/2G/2AF GED:||


Tune 879	Setting 26544

